X:1
T:Pria che'l ciel
T:Giammateo Asola
T:Source : Madrigali a due voci---Venetia---G.Vincenti---1587. Editor : André Vierendeels (25/04/17). 
T:Notes : Original clef : C3 ( Fuga di un tempo, une quarta piu basso) Editorial accidentals above tha staff
T:Pria che'l ciel
T:©
T:©
T:©
C:Giammateo Asola
Z:©
%%score [ 1 2 ]
L:1/8
Q:1/4=120
M:2/2
K:F
V:1 treble nm="Alto" snm="A"
V:2 treble-8 nm="Tenor" snm="T"
V:1
 D4 D2 D2 | E4 F4 | z2 D2 E2 G2 | F2 E2 D4 | E2 D2 D2 C2 | D2 E2 F2 G2 | F2 D2 E2 D2 | %7
w: Pria che'l ciel|fos- se|il mar la|ter- ra'e'l fo-|co, e- ra'il fo-|co la ter- ra'il|ciel e'l ma- re,|
 z2 C2 D2 E2 | FF G2 E2 DD | E2 F2 z DFE | D2 E2 F2 E2 | EC D2 C2 z G, | DD C2 D2 F2 | %13
w: ma'l mar ren-|den' il ciel la ter- ra'e'l|fo- co, de- for- me'il|fo- co'il ciel la|ter- ra'e'l ma- re, ch'i-|vie- ra ter- ra'e cie-|
 E2 z G EC E2 | D4 z2 D2 | E2 F2 G2 A2 | z D E2 F2 GG | E2 D2 z EFF | G2 A2 DDEG | F A2 G A2 D2 | %20
w: lo, e ma- r'e fo-|co, do-|v'e- ra cie- lo|e ter- ra'e fo- co'e|ma- re, la ter- ra'il|fo- co'e'l mar e- ra nel|ci- e- * lo, nel|
 E2 F2 G2 E2 | D2 E2 FA G2 | A2 z D E2 F2 | GG E2 D2 z A, | B,G,DD C2 DG, | A, D2 C DB, A,2 | %26
w: mar nel fo- co'e|ne la ter- ra'il cie-|lo e ne la|ter- ra'il cie- lo, nel|mar nel fo- co'e ne la ter-|ra'il cie- * * * lo,|
 G, C2 B, A, D2 C |"^#" D8 |] %28
w: e ne la ter- ra'il cie-|lo.|
V:2
 z8 | A4 A2 A2 | B4 c4 | z2 A2 B2 d2 | c2 B2 A4 | B2 A2 A2 G2 | A2 B2 c2 d2 | c2 A2 B2 A2 | %8
w: |Pria che'l ciel|fos- se|il mar la|ter- ra'il fo-|co, e- ra'il fo-|co la ter- ra'il|ciel e'l ma- re,|
 z2 G2 A2 B2 | cc d2 B2 AA | B2 c2 z AcB | A2 B2 c2 B2 | BG A2 G2 z D | AA G2 A2 c2 | %14
w: ma'l mar ren-|den' il ciel la ter- ra'e'l|fo- co, de- for- me'il|fo- co'il ciel la|ter- ra'e'l ma- re, ch'i-|vie- ra ter- ra'e cie-|
 B2 z d BG B2 | A4 z2 A2 | B2 c2 d2 e2 | z A B2 c2 dd | B2 A2 z Bcc | d2 e2 AABd | c e2 d e2 A2 | %21
w: lo, a ma- r'e fo-|co, do-|v'e- ra cie- lo|e ter- ra'e fo- co'e|ma- re, la ter- ra'il|fo- co'e'l mar e- ra nel|ci- e- * lo, nel|
 B2 c2 d2 B2 | A2 B2 ce d2 | e2 z A B2 c2 | dd B2 A2 z E | FDAA G2 AD | E A2 G AF E2 | D8 |] %28
w: mar nel fo- co'e|ne la ter- ra'il cie-|lo e ne la|ter- ra'il cie- lo, nel|mar nel fo- co'e ne la ter-|ra'il cie- * * * *|lo.|

